X:1
T:Illinois
T:Transcribed from Eclectic Harmony *, 1847 Alto by B. C. Johnston, 2018.
T:Joseph Hart, 1762 The Stony Heart                         88. 88. (L. M.)
T:E Major                  Andrew W. Johnson, 1847
%%score [ 1 2 3 4 ]
L:1/8
Q:1/4=120
M:6/4
K:E
V:1 treble nm="Tr." snm="Tr."
V:2 treble nm="A." snm="A."
V:3 treble-8 nm="T." snm="T."
V:4 bass nm="B." snm="B."
V:1
"_1. O for  a  glance of heavenly day,  To take this stubborn heart away,     And thaw with beams of love divine, This heart, this frozen heart of mine!\n2. The rocks can rend, the earth can quake;                                              Of feeling, all things show some sign, But this unfeeling heart of mine" B6 | %1
 B4 c2 e4 c2 | e4 B2 B4"_The seas can roar, the mountains shake:" B2 | E4 E2 (G2 A2) B2 | %4
 c4 B2 B6 |: z4 z2 E6 | B4 B2 e4 B2 | B4 G2 B4 c2 | e4 c2 (B2 G2) B2 |1 e4 B2 B6 :|2 e4 B2 B6- | %11
 B6 |] %12
V:2
"_3. To hear the sorrows thou hast felt, O Lord, an adamant would melt:    But I can read each moving line. And nothing moves this heart of mine." B6 | %1
 B4 G2 B4 c2 | B4 B2 B4 E2 | E4 E2 (G2 F2) G2 | F4 F2 E6 |: z4 z2 B6 | B4 B2 G4 E2 | F4 G2 B4 A2 | %8
 B4 B2 G4 B2 |1 B4 F2 E6 :|2 B4 B2 B6- | B6 |] %12
V:3
"_4. Thy judgments too which devils fear–Amazing thought!–unmoved I hear;      Goodness and wrath in vain combine  To stir this stupid heart of mine.\n5. But something yet can do the deed, And that dear something much I need;    Thy Spirit can from dross refine, And move and melt this heart of mine." E6 | %1
 E4 G2 B4 c2 | B4 F2 E4 E2 | e4 e2 (e2 f2) g2 | f4 B2 B6 |: z4 z2 B6 | e4 f2 g4 e2 | f4 B2 e4 c2 | %8
 B4 B2 (G2 F2) G2 |1 B4 E2 E6 :|2 B4 E2 E6- | E6 |] %12
V:4
"____________________________________________________________\n*Reproduced in Eskew (2001).\n\nEdited by  B. C. Johnston, 2018\n   1. Measure 3, \nTenor\n: second note changed from G# (la) to F# (sol).\n   2. Alto part written." E,6 | %1
 B,,4 C,2 E,4 E,2 | G,4 F,2 E,4 E,2 | E,4 E,2 (E,2 F,2) G,2 | B,4 B,,2 E,6 |: z4 z2 E,6 | %6
 E,4 B,2 G,4 E,2 | G,4 B,2 E,4 E,2 | B,,4 B,,2 (C,2 B,,2) C,2 |1 E,4 B,2 E,6 :|2 E,4 B,2 E,6- | %11
 E,6 |] %12

